icons/mlab.svg

<?xml version="1.0" encoding="UTF-8"?>
<svg width="512px" height="183px" viewBox="0 0 512 183" version="1.1" xmlns="http://www.w3.org/2000/svg" xmlns:xlink="http://www.w3.org/1999/xlink" preserveAspectRatio="xMidYMid">
    <defs>
        <linearGradient x1="100%" y1="50%" x2="0%" y2="50%" id="linearGradient-1">
            <stop stop-color="#F8C41B" offset="0%"></stop>
            <stop stop-color="#F9AC18" offset="100%"></stop>
        </linearGradient>
    </defs>
		<g>
				<path d="M234.055788,64.2383915 C223.051852,64.2383915 214.185312,68.6675979 206.987513,77.7698201 C202.138413,69.0306032 193.569862,64.2383915 182.718984,64.2383915 C170.743873,64.2383915 163.708614,70.4528254 158.925884,76.541291 L158.925884,65.9193228 L138.830561,65.9193228 L138.830561,146.637884 L158.925884,146.637884 L158.925884,101.864974 C158.925884,90.1946243 165.386836,82.6541376 175.385735,82.6541376 C185.264085,82.6541376 190.929947,89.4889312 190.929947,101.405799 L190.929947,146.637884 L211.02527,146.637884 L211.02527,101.864974 C211.02527,90.0144762 217.333164,82.6541376 227.486476,82.6541376 C237.509757,82.6541376 243.030688,89.3670265 243.030688,101.558857 L243.030688,146.637884 L263.124656,146.637884 L263.124656,95.9065397 C263.124656,76.0766984 252.258878,64.2383915 234.055788,64.2383915" fill="#232B32"></path>
				<path d="M402.501079,115.412656 C402.501079,124.080085 393.241735,133.999069 381.098667,133.999069 C372.295788,133.999069 365.860571,129.599661 365.860571,121.864127 L365.860571,121.56072 C365.860571,113.219725 372.447492,108.213503 384.287153,108.213503 C391.57164,108.213503 397.795556,109.578836 402.501079,111.39928 L402.501079,115.412656 Z M384.214011,64.1815026 C371.084868,64.1815026 362.176339,66.8363175 353.110688,70.8971005 L358.028868,85.6204868 C365.531429,82.4970159 372.49219,80.7158519 381.713608,80.7158519 C394.998519,80.7158519 402.18819,86.285545 402.18819,97.9992381 L402.18819,98.6751323 C395.780063,96.6447407 389.214815,95.3755767 379.993397,95.3755767 C359.831704,95.3755767 345.785566,104.121566 345.785566,121.926434 L345.785566,122.916571 C345.785566,139.471238 359.675937,148.645249 375.14836,148.645249 C387.808847,148.645249 396.405841,144.81473 402.032423,138.099132 L402.032423,146.655492 L421.988233,146.655492 L421.988233,98.8539259 C421.988233,86.034963 418.339217,79.3302011 412.243979,73.3961481 C406.460275,67.4607407 396.561608,64.1815026 384.214011,64.1815026 Z M485.55073,123.565376 C481.349079,128.033862 476.177608,130.267429 470.036317,130.267429 C463.698624,130.267429 458.440466,128.070434 454.26455,123.67509 C450.088635,119.282455 448,113.524487 448,106.405249 C448,99.4350053 450.088635,93.7881058 454.26455,89.4672593 C458.440466,85.1464127 463.698624,82.9859894 470.036317,82.9859894 C476.325249,82.9859894 481.533291,85.1843386 485.660444,89.5769735 C489.787598,93.9723175 491.851852,99.605672 491.851852,106.479746 C491.851852,113.402582 489.751026,119.098243 485.55073,123.565376 Z M500.917503,76.2839365 C493.59509,68.3790899 484.702815,64.4266667 474.237968,64.4266667 C469.421376,64.4266667 464.901418,65.3355344 460.676741,67.1519153 C456.450709,68.9682963 452.519958,71.693545 448.884487,75.3263069 L448.884487,39.8899471 L428.912423,39.8899471 L428.912423,146.616212 L448.884487,146.616212 L448.884487,138.147894 C452.815238,141.879534 456.77037,144.566857 460.749884,146.211217 C464.730751,147.855577 469.028571,148.679111 473.647407,148.679111 C484.01473,148.679111 492.981503,144.664381 500.549079,136.63763 C508.113947,128.609524 511.898413,118.630942 511.898413,106.700529 C511.898413,94.3271958 508.237206,84.1901376 500.917503,76.2839365 Z M303.083683,38.1263915 L283.125164,38.1263915 L283.125164,146.616212 L341.521608,146.616212 L341.521608,126.952974 L303.083683,126.952974 L303.083683,38.1263915 L303.083683,38.1263915 Z" fill="#ECA52E"></path>
				<path d="M86.029545,167.321058 L81.9768889,174.097608 L77.4958783,174.097058 L77.5151746,178.064931 C77.5151746,180.515217 75.525418,182.506328 73.0724233,182.506328 C70.6194286,182.506328 68.629672,180.515217 68.629672,178.064931 L68.6128783,174.097058 L52.8738783,174.097058 L52.8931217,178.064931 C52.8931217,180.515217 50.9033651,182.506328 48.4517249,182.506328 C45.9987302,182.506328 44.0089735,180.515217 44.0089735,178.064931 L43.9918783,174.097058 L28.2538783,174.097058 L28.2737778,178.064931 C28.2737778,180.515217 26.2826667,182.506328 23.829672,182.506328 C21.3766772,182.506328 19.3869206,180.515217 19.3869206,178.064931 L19.3708783,174.097058 L14.5933545,174.097608 L10.8508783,167.321058 L86.029545,167.321058 Z" fill="#4273A5"></path>
				<path d="M48.469001,-7.10542736e-15 L48.5143581,-7.10542736e-15 C48.8682149,0.00733595678 49.2140302,0.187319873 49.3714286,0.598687831 C49.8116402,1.7405291 50.5498413,3.10450794 51.194582,4.34793651 C51.5061164,4.95204233 52.2334815,5.71868783 53.5310899,6.01125926 C75.8315344,8.37621164 93.1772275,26.0700106 93.3140317,47.6011005 L93.3302857,47.6011005 L93.3302857,125.969608 L3.55013757,125.969608 L3.55013757,47.6011005 L3.56774603,47.6011005 C3.70319577,26.0645926 21.0597249,8.36673016 43.3682963,6.00855026 C44.549418,5.71868783 45.3932698,4.94797884 45.7075132,4.34387302 C46.354963,3.09367196 47.0660741,1.71073016 47.5320212,0.579724868 C47.677053,0.228705721 48.0732395,0.00815652546 48.4690011,-7.10542736e-15 L48.469001,-7.10542736e-15 Z" fill="url(#linearGradient-1)"></path>
				<path d="M45.8497354,50.4983704 C44.5643175,50.4983704 43.1691852,50.4983704 41.5180529,50.4983704 C36.5511111,50.4983704 34.4651852,53.7004021 34.4651852,57.7354497 C34.4651852,66.9243598 39.4890159,72.5265608 39.4890159,79.2516402 C39.4890159,86.1988571 36.7542857,91.5897566 28.4471534,93.3831111 C36.7542857,95.1764656 39.4890159,98.4137143 39.4890159,105.360931 C39.4890159,112.197079 34.4651852,120.490667 34.4651852,129.567153 C34.4651852,133.599492 35.9144974,136.067386 40.1635556,136.067386 L42.5772698,136.067386 L42.5772698,147.046942 L37.1687619,147.046942 C25.578328,147.046942 20.2673439,139.541672 20.2673439,130.576254 C20.2673439,118.248974 28.5744762,110.291302 28.5744762,103.567577 C28.5744762,99.6463069 27.1928889,97.5021376 21.7830265,97.5021376 L17.3402751,97.5021376 L17.3402751,89.357545 L21.7830265,89.357545 C27.1928889,89.357545 28.5744762,87.6562963 28.5744762,83.8447407 C28.5744762,77.1210159 23.4287407,67.6977778 23.4287407,55.4829206 C23.4287407,47.1392169 33.527873,35.9036614 45.8497354,41.9081481 L45.8497354,50.4983704 Z M75.8396614,97.5021376 C70.4284444,97.5021376 68.7569947,99.6463069 68.7569947,103.567577 C68.7569947,110.291302 77.0654815,118.248974 77.0654815,130.576254 C77.0654815,139.541672 71.7517884,147.046942 60.16,147.046942 L54.7528466,147.046942 L54.7528466,136.067386 L57.1652063,136.067386 C61.4169735,136.067386 62.8649312,133.599492 62.8649312,129.567153 C62.8649312,120.490667 57.842455,112.197079 57.842455,105.360931 C57.842455,98.4137143 60.1274921,95.1764656 68.4346243,93.3831111 C60.1274921,91.5897566 57.842455,86.1988571 57.842455,79.2516402 C57.842455,72.5265608 62.8649312,66.9243598 62.8649312,57.7354497 C62.8649312,53.7004021 60.7817143,50.4983704 55.810709,50.4983704 C53.9753651,50.4983704 52.4542646,50.4983704 51.0320423,50.4983704 L51.0320423,42.0815238 C63.5259259,35.6801693 73.9027302,47.0579471 73.9027302,55.4829206 C73.9027302,67.6977778 68.7569947,77.1210159 68.7569947,83.8447407 C68.7569947,87.6562963 70.4284444,89.357545 75.8396614,89.357545 L79.5415026,89.357545 L79.5415026,97.5021376 L75.8396614,97.5021376 L75.8396614,97.5021376 Z" fill="#152331"></path>
				<path d="M92.1302011,131.127534 C91.6493545,132.51454 91.4556614,134.144 91.383873,135.50527 C91.383873,135.536423 91.3879365,135.566222 91.3879365,135.594667 L91.3879365,163.723513 C91.3879365,166.176508 89.3995344,168.166265 86.9451852,168.166265 L9.9338836,168.166265 C7.48088889,168.166265 5.49113228,166.176508 5.49113228,163.723513 L5.49113228,135.594667 C5.49113228,135.560804 5.49519577,135.528296 5.49790476,135.491725 C5.4247619,134.142646 5.22835979,132.530794 4.75022222,131.15327 C3.65443386,127.990519 -7.10542736e-15,126.713228 -7.10542736e-15,126.713228 L0.243809524,124.988952 L96.6352593,124.988952 L96.8817778,126.713228 C96.8817778,126.713228 93.2300529,127.966138 92.1302011,131.127534" fill="#5488B5"></path>
				<path d="M35.4634497,140.109206 C37.3462011,140.109206 38.8713651,141.635725 38.8713651,143.517122 C38.8713651,145.399873 37.3462011,146.925037 35.4634497,146.925037 L5.48977778,146.925037 L5.48977778,140.109206 L35.4634497,140.109206 Z M91.381164,140.09837 L91.381164,146.914201 L61.4088466,146.914201 C59.5260952,146.914201 58.0009312,145.387683 58.0009312,143.506286 C58.0009312,141.623534 59.5260952,140.09837 61.4088466,140.09837 L91.381164,140.09837 Z" fill="#87B4D5"></path>
		</g>
</svg>

<svg xmlns="http://www.w3.org/2000/svg" viewBox="0 0 511.898 182.506">
  <defs>
    <linearGradient id="a" x1="110.552" x2="4.205" y1="53.173" y2="53.173" gradientTransform="scale(.84422 1.18452)" gradientUnits="userSpaceOnUse">
      <stop offset="0%" stop-color="#F8C41B"/>
      <stop offset="100%" stop-color="#F9AC18"/>
    </linearGradient>
  </defs>
  <path fill="#232b32" d="M234.056 64.238c-11.004 0-19.87 4.43-27.068 13.532-4.85-8.74-13.418-13.532-24.269-13.532-11.975 0-19.01 6.215-23.793 12.303V65.92H138.83v80.719h20.095v-44.773c0-11.67 6.46-19.21 16.46-19.21 9.878 0 15.544 6.834 15.544 18.75v45.233h20.095v-44.773c0-11.85 6.308-19.21 16.461-19.21 10.024 0 15.545 6.712 15.545 18.904v45.079h20.094V95.907c0-19.83-10.866-31.669-29.07-31.669"/>
  <path fill="#eca52e" d="M402.501 115.413c0 8.667-9.26 18.586-21.402 18.586-8.803 0-15.238-4.4-15.238-12.135v-.303c0-8.341 6.586-13.347 18.426-13.347 7.285 0 13.509 1.365 18.214 3.185zm-18.287-51.231c-13.13 0-22.038 2.654-31.103 6.715l4.918 14.723c7.502-3.123 14.463-4.904 23.685-4.904 13.285 0 20.474 5.57 20.474 17.283v.676c-6.408-2.03-12.973-3.3-22.195-3.3-20.161 0-34.207 8.747-34.207 26.551v.99c0 16.555 13.89 25.73 29.362 25.73 12.66 0 21.258-3.831 26.884-10.547v8.556h19.956V98.854c0-12.819-3.649-19.524-9.744-25.458-5.784-5.935-15.682-9.214-28.03-9.214zm101.337 59.383c-4.202 4.469-9.373 6.702-15.515 6.702-6.337 0-11.596-2.197-15.771-6.592-4.176-4.393-6.265-10.15-6.265-17.27 0-6.97 2.089-12.617 6.265-16.938 4.175-4.32 9.434-6.481 15.771-6.481 6.29 0 11.497 2.198 15.624 6.591 4.128 4.395 6.192 10.029 6.192 16.903 0 6.923-2.101 12.618-6.301 17.085zm15.367-47.281c-7.323-7.905-16.215-11.857-26.68-11.857-4.817 0-9.337.909-13.561 2.725-4.226 1.816-8.157 4.542-11.793 8.174V39.89h-19.972v106.726h19.972v-8.468c3.931 3.732 7.886 6.419 11.866 8.063 3.98 1.645 8.279 2.468 12.897 2.468 10.368 0 19.334-4.015 26.902-12.041 7.565-8.028 11.35-18.007 11.35-29.937 0-12.374-3.662-22.51-10.981-30.417zM303.084 38.126h-19.959v108.49h58.397v-19.663h-38.438z"/>
  <path fill="#4273a5" d="m86.03 167.321-4.053 6.777h-4.481l.02 3.967a4.444 4.444 0 0 1-8.886 0l-.017-3.968h-15.74l.02 3.968c0 2.45-1.99 4.441-4.441 4.441a4.444 4.444 0 0 1-4.443-4.441l-.017-3.968H28.254l.02 3.968a4.444 4.444 0 0 1-8.887 0l-.016-3.968h-4.778l-3.742-6.776z"/>
  <path fill="url(#a)" d="M48.469 0h.045c.354.007.7.187.857.599.44 1.142 1.179 2.506 1.824 3.749.311.604 1.038 1.37 2.336 1.663 22.3 2.365 39.646 20.059 39.783 41.59h.016v78.369H3.55V47.6h.018C3.703 26.065 21.06 8.367 43.368 6.01c1.181-.29 2.025-1.061 2.34-1.665.647-1.25 1.358-2.633 1.824-3.764.145-.351.541-.572.937-.58z" style="fill:url(#a)"/>
  <path fill="#152331" d="M45.85 50.498h-4.332c-4.967 0-7.053 3.202-7.053 7.237 0 9.19 5.024 14.792 5.024 21.517 0 6.947-2.735 12.338-11.042 14.131 8.307 1.793 11.042 5.03 11.042 11.978 0 6.836-5.024 15.13-5.024 24.206 0 4.032 1.45 6.5 5.699 6.5h2.413v10.98H37.17c-11.59 0-16.902-7.505-16.902-16.47 0-12.328 8.307-20.286 8.307-27.01 0-3.92-1.381-6.065-6.791-6.065H17.34v-8.144h4.443c5.41 0 6.791-1.702 6.791-5.513 0-6.724-5.145-16.147-5.145-28.362 0-8.344 10.099-19.58 22.42-13.575zm29.99 47.004c-5.412 0-7.083 2.144-7.083 6.066 0 6.723 8.308 14.681 8.308 27.008 0 8.966-5.313 16.47-16.905 16.47h-5.407v-10.979h2.412c4.252 0 5.7-2.468 5.7-6.5 0-9.076-5.023-17.37-5.023-24.206 0-6.947 2.285-10.185 10.593-11.978-8.308-1.793-10.593-7.184-10.593-14.131 0-6.725 5.023-12.328 5.023-21.517 0-4.035-2.083-7.237-7.054-7.237h-4.779v-8.416c12.494-6.402 22.87 4.976 22.87 13.4 0 12.216-5.145 21.639-5.145 28.363 0 3.811 1.671 5.513 7.083 5.513h3.702v8.144z"/>
  <path fill="#5488b5" d="M92.13 131.128c-.48 1.387-.674 3.016-.746 4.377 0 .031.004.061.004.09v28.129a4.443 4.443 0 0 1-4.443 4.442H9.934a4.444 4.444 0 0 1-4.443-4.442v-28.13c0-.033.004-.066.007-.102-.073-1.35-.27-2.961-.748-4.339-1.096-3.162-4.75-4.44-4.75-4.44l.244-1.724h96.391l.247 1.724s-3.652 1.253-4.752 4.415"/>
  <path fill="#87b4d5" d="M35.463 140.11a3.408 3.408 0 0 1 0 6.815H5.49v-6.816zm55.918-.012v6.816H61.41a3.408 3.408 0 0 1 0-6.816z"/>
</svg>
